X:1
T:Fortune My Foe
M:4/4
L:1/4
K:G
 E2 E F| G3 F| E B A G| F4| E2 E F| G3 F| E B A G| F4| B2 B3/2 B/2|\
 B3 B| B d c B| A4| A2 d c| B3A/2-G/2| F E E ^D| E4|

